X:1
T:Gorton (West), SM
T:Gorton (West), SM
T:Arr. from Beethoven by John E. West (1863-1929)
T:Public Domain Courtesy of the Cyber Hymnal™
C:Arr. from Beethoven by John E. West (1863-1929)
Z:Public Domain
Z:Courtesy of the Cyber Hymnal™
%%score ( 1 2 ) ( 3 4 )
L:1/8
Q:1/4=113
M:4/4
K:Ab
V:1 treble 
V:2 treble 
V:3 bass 
V:4 bass 
V:1
 [CE]2 | [CE]2 [CE]2 [DF]2 [DF]2 | [CE]6 [CE]2 | [B,E]2 [B,E]2 [CA]2 [CA]2 | [EB]6 [EB]2 | %5
 [Ec]2 [Ec]2 [DA]2 [DA]2 | [FB]2 [GB]2 A2 [EA]2 | [EA]2 [EA]2 [EA]2 [EG]2 | [EA]6 |] %9
V:2
 x2 | x8 | x8 | x8 | x8 | x8 | x4 A2 x2 | x8 | x6 |] %9
V:3
 [A,,A,]2 | [A,,A,]2 [A,,A,]2 [D,A,]2 [D,A,]2 | [A,,A,]6 A,2 | [G,B,]2 [G,B,]2 [F,A,]2 [F,A,]2 | %4
 [E,G,]6 [E,G,]2 | [A,,A,]2 [A,,A,]2 [D,F,]2 [D,F,]2 | [B,,D]2 [E,D]2 [A,,C]2 [C,C]2 | %7
 [E,C]2 [E,_C]2 [E,B,]2 [E,B,]2 | [A,,C]6 |] %9
V:4
 x2 | x8 | x6 A,2 | x8 | x8 | x8 | x8 | x8 | x6 |] %9

